X: 25164
T: Major Campbell Graham, MBE
R: reel
M: 4/4
K: Dmajor
fe|d3 B dBBA|Bdde f3e|f2ed faaf|eddf e2 fe|
d3 B dBBA|Bdde f3e|f2ed faaf|1 edfe d2:|2 edfe defg||
a3e fedB|ABda f3e|f2ed faaf|eddf e2fg|
a3e fedB|ABda f3e|f2ed faaf|edfe defg|
a3e fedB|ABda f3e|f2ed faaf|eddf e2fe|
d3B dBBA|Bdde f3e|f2ed faaf|edfe d2cA||
|:B3f fedB|ABda f3e|f2ed faaf|eddf edcA|
B3f fedB|ABda f3e|f2ed faaf|1 edfe d2cA:|2 edfe defg||
a3e fede|aaae f2ef|aaae fede|fedf e2 fg|
a3e fedB|ABda f3e|f2ed faaf|edfe defg|
a3e fede|aaae f2ef|aaae fede|fedf e2 fe|
d3 B dBBA|Bdde f3e|f2ed faaf|edfe d2||

